public/svgs/drop.svg

<?xml version="1.0" encoding="UTF-8"?>
<svg width="19px" height="23px" viewBox="0 0 19 23" version="1.1" xmlns="http://www.w3.org/2000/svg" xmlns:xlink="http://www.w3.org/1999/xlink">
    <!-- Generator: Sketch 63.1 (92452) - https://sketch.com -->
    <desc>Created with Sketch.</desc>
    <g id="Page-1" stroke="none" stroke-width="1" fill="none" fill-rule="evenodd">
        <g id="Home-dark-Copy" transform="translate(-292.000000, -14.000000)" fill="#FFFFFF">
            <g id="Group-5" transform="translate(292.000000, 14.000000)">
                <path d="M9.4844,1.9746 L3.7654,7.6936 C2.2374,9.2216 1.3954,11.2526 1.3954,13.4126 C1.3954,15.5736 2.2374,17.6036 3.7644,19.1316 C6.9194,22.2856 12.0494,22.2856 15.2044,19.1326 C16.7314,17.6046 17.5734,15.5736 17.5734,13.4126 C17.5734,11.2526 16.7314,9.2216 15.2044,7.6936 L9.4844,1.9746 Z M9.4844,22.8926 C7.0554,22.8926 4.6274,21.9686 2.7784,20.1196 C0.9864,18.3286 0.0004,15.9466 0.0004,13.4126 C0.0004,10.8796 0.9864,8.4976 2.7784,6.7066 L9.4844,-0.0004 L16.1914,6.7066 C17.9824,8.4976 18.9684,10.8796 18.9684,13.4126 C18.9684,15.9466 17.9824,18.3286 16.1904,20.1196 L16.1904,20.1196 C14.3414,21.9686 11.9134,22.8926 9.4844,22.8926 L9.4844,22.8926 Z" id="Fill-1"></path>
                <path d="M8.6484,13.4131 C8.6484,14.0011 9.1264,14.4781 9.7134,14.4781 C10.3014,14.4781 10.7784,14.0011 10.7784,13.4131 C10.7784,12.8251 10.3014,12.3481 9.7134,12.3481 C9.1264,12.3481 8.6484,12.8251 8.6484,13.4131" id="Fill-3"></path>
            </g>
        </g>
    </g>
</svg>

<svg height="23" viewBox="0 0 19 23" width="19" xmlns="http://www.w3.org/2000/svg"><g fill="#fff" fill-rule="evenodd"><path d="m9.4844 1.9746-5.719 5.719c-1.528 1.528-2.37 3.559-2.37 5.719 0 2.161.842 4.191 2.369 5.719 3.155 3.154 8.285 3.154 11.44.001 1.527-1.528 2.369-3.559 2.369-5.72 0-2.16-.842-4.191-2.369-5.719zm0 20.918c-2.429 0-4.857-.924-6.706-2.773-1.792-1.791-2.778-4.173-2.778-6.707 0-2.533.986-4.915 2.778-6.706l6.706-6.707 6.707 6.707c1.791 1.791 2.777 4.173 2.777 6.706 0 2.534-.986 4.916-2.778 6.707-1.849 1.849-4.277 2.773-6.706 2.773z"/><path d="m8.6484 13.4131c0 .588.478 1.065 1.065 1.065.588 0 1.065-.477 1.065-1.065s-.477-1.065-1.065-1.065c-.587 0-1.065.477-1.065 1.065"/></g></svg>
